polaris-icons/icons/new-icons/AdjustMinor.svg

<svg width="20" height="20" viewBox="0 0 20 20" fill="none" xmlns="http://www.w3.org/2000/svg">
<path fill-rule="evenodd" clip-rule="evenodd" d="M9.09451 6.25C9.42755 4.95608 10.6021 4 12 4C13.3979 4 14.5725 4.95608 14.9055 6.25L16.25 6.25C16.6642 6.25 17 6.58579 17 7C17 7.41421 16.6642 7.75 16.25 7.75L14.9055 7.75C14.5725 9.04392 13.3979 10 12 10C10.6021 10 9.42754 9.04392 9.09451 7.75L3.75 7.75C3.33579 7.75 3 7.41421 3 7C3 6.58579 3.33579 6.25 3.75 6.25L9.09451 6.25ZM10.5 7C10.5 6.17157 11.1716 5.5 12 5.5C12.8284 5.5 13.5 6.17157 13.5 7C13.5 7.82843 12.8284 8.5 12 8.5C11.1716 8.5 10.5 7.82843 10.5 7Z" fill="#4A4A4A"/>
<path fill-rule="evenodd" clip-rule="evenodd" d="M8 16C9.39788 16 10.5725 15.0439 10.9055 13.75H16.25C16.6642 13.75 17 13.4142 17 13C17 12.5858 16.6642 12.25 16.25 12.25H10.9055C10.5725 10.9561 9.39788 10 8 10C6.60212 10 5.42755 10.9561 5.09451 12.25H3.75C3.33579 12.25 3 12.5858 3 13C3 13.4142 3.33579 13.75 3.75 13.75H5.09451C5.42755 15.0439 6.60212 16 8 16ZM9.5 13C9.5 13.8284 8.82843 14.5 8 14.5C7.17157 14.5 6.5 13.8284 6.5 13C6.5 12.1716 7.17157 11.5 8 11.5C8.82843 11.5 9.5 12.1716 9.5 13Z" fill="#4A4A4A"/>
</svg>

<svg viewBox="0 0 20 20" xmlns="http://www.w3.org/2000/svg"><path fill-rule="evenodd" d="M9.095 6.25a3.001 3.001 0 0 1 5.81 0h1.345a.75.75 0 0 1 0 1.5h-1.345a3.001 3.001 0 0 1-5.81 0h-5.345a.75.75 0 0 1 0-1.5h5.345Zm1.405.75a1.5 1.5 0 1 1 3 0 1.5 1.5 0 0 1-3 0Z" fill="#5C5F62"/><path fill-rule="evenodd" d="M8 16a3.001 3.001 0 0 0 2.905-2.25h5.345a.75.75 0 0 0 0-1.5h-5.345a3.001 3.001 0 0 0-5.81 0h-1.345a.75.75 0 0 0 0 1.5h1.345a3.001 3.001 0 0 0 2.905 2.25Zm1.5-3a1.5 1.5 0 1 1-3 0 1.5 1.5 0 0 1 3 0Z" fill="#5C5F62"/></svg>
